src/widgets/Footer/_i/18.svg

<svg width="64" height="64" viewBox="0 0 64 64" fill="none" xmlns="http://www.w3.org/2000/svg">
<g clip-path="url(#clip0_131_1949)">
<path d="M24.9678 22.0254H30.108V46.0746H33.858V18.2754H24.9678V22.0254Z" fill="white"/>
<path d="M51.3836 29.6474C52.5665 28.4015 53.2946 26.7199 53.2946 24.8704C53.2946 21.0409 50.179 17.9253 46.3494 17.9253C42.5199 17.9253 39.4043 21.0409 39.4043 24.8704C39.4043 26.7199 40.1324 28.4015 41.3153 29.6474C39.0236 31.244 37.52 33.8965 37.52 36.895C37.52 41.7637 41.4809 45.7245 46.3495 45.7245C51.2181 45.7245 55.179 41.7637 55.179 36.895C55.1789 33.8965 53.6751 31.244 51.3836 29.6474ZM43.1543 24.8703C43.1543 23.1085 44.5876 21.6752 46.3494 21.6752C48.1113 21.6752 49.5446 23.1085 49.5446 24.8703C49.5446 26.6322 48.1113 28.0655 46.3494 28.0655C44.5876 28.0655 43.1543 26.6322 43.1543 24.8703ZM46.3494 41.9744C43.5485 41.9744 41.2699 39.6958 41.2699 36.8949C41.2699 34.094 43.5485 31.8154 46.3494 31.8154C49.1503 31.8154 51.4289 34.094 51.4289 36.8949C51.4289 39.6958 49.1503 41.9744 46.3494 41.9744Z" fill="white"/>
<path d="M17.5477 25.6646H13.7977V31.4554H8.00684V35.2054H13.7977V40.9962H17.5477V35.2054H23.3385V31.4554H17.5477V25.6646Z" fill="white"/>
<path d="M54.6275 9.3725C48.5834 3.32863 40.5475 0 32 0C23.4525 0 15.4166 3.32863 9.3725 9.3725C3.32863 15.4166 0 23.4525 0 32C0 40.5475 3.32863 48.5834 9.3725 54.6275C15.4166 60.6714 23.4525 64 32 64C40.5475 64 48.5834 60.6714 54.6275 54.6275C60.6714 48.5834 64 40.5475 64 32C64 23.4525 60.6714 15.4166 54.6275 9.3725ZM32 60.25C16.4229 60.25 3.75 47.5771 3.75 32C3.75 16.4229 16.4229 3.75 32 3.75C47.5771 3.75 60.25 16.4229 60.25 32C60.25 47.5771 47.5771 60.25 32 60.25Z" fill="white"/>
</g>
<defs>
<clipPath id="clip0_131_1949">
<rect width="64" height="64" fill="white"/>
</clipPath>
</defs>
</svg>

<svg xmlns="http://www.w3.org/2000/svg" width="64" height="64" fill="none" viewBox="0 0 64 64"><g fill="#fff" clip-path="url(#a)"><path d="M24.968 22.025h5.14v24.05h3.75v-27.8h-8.89zm26.416 7.622a6.92 6.92 0 0 0 1.91-4.777 6.953 6.953 0 0 0-6.945-6.945 6.953 6.953 0 0 0-6.945 6.945c0 1.85.728 3.531 1.911 4.777a8.82 8.82 0 0 0-3.795 7.248c0 4.869 3.96 8.83 8.83 8.83 4.868 0 8.829-3.961 8.829-8.83a8.82 8.82 0 0 0-3.795-7.248m-8.23-4.777a3.2 3.2 0 0 1 3.195-3.195 3.2 3.2 0 0 1 3.196 3.195 3.2 3.2 0 0 1-3.196 3.195 3.2 3.2 0 0 1-3.195-3.195m3.195 17.104c-2.8 0-5.08-2.278-5.08-5.08 0-2.8 2.28-5.079 5.08-5.079s5.08 2.279 5.08 5.08c0 2.8-2.279 5.08-5.08 5.08m-28.801-16.31h-3.75v5.79H8.007v3.75h5.79v5.791h3.75v-5.79h5.791v-3.75h-5.79z"/><path d="M54.628 9.373C48.582 3.329 40.548 0 32 0S15.417 3.329 9.373 9.373 0 23.453 0 32c0 8.548 3.329 16.583 9.373 22.627S23.453 64 32 64c8.548 0 16.583-3.329 22.627-9.373S64 40.548 64 32s-3.329-16.583-9.373-22.627M32 60.25C16.423 60.25 3.75 47.577 3.75 32S16.423 3.75 32 3.75 60.25 16.423 60.25 32 47.577 60.25 32 60.25"/></g><defs><clipPath id="a"><path fill="#fff" d="M0 0h64v64H0z"/></clipPath></defs></svg>
